Sweet-Rainbow/icons/sweethome3d.svg

<?xml version="1.0" encoding="UTF-8" standalone="no"?>
<!-- Generator: Gravit.io -->

<svg
   xmlns:dc="http://purl.org/dc/elements/1.1/"
   xmlns:cc="http://creativecommons.org/ns#"
   xmlns:rdf="http://www.w3.org/1999/02/22-rdf-syntax-ns#"
   xmlns:svg="http://www.w3.org/2000/svg"
   xmlns="http://www.w3.org/2000/svg"
   xmlns:sodipodi="http://sodipodi.sourceforge.net/DTD/sodipodi-0.dtd"
   xmlns:inkscape="http://www.inkscape.org/namespaces/inkscape"
   style="isolation:isolate"
   viewBox="0 0 36 36"
   width="48"
   height="48"
   version="1.1"
   id="svg16"
   sodipodi:docname="sweethome3d.svg"
   inkscape:version="0.92.4 (5da689c313, 2019-01-14)">
  <metadata
     id="metadata22">
    <rdf:RDF>
      <cc:Work
         rdf:about="">
        <dc:format>image/svg+xml</dc:format>
        <dc:type
           rdf:resource="http://purl.org/dc/dcmitype/StillImage" />
        <dc:title></dc:title>
      </cc:Work>
    </rdf:RDF>
  </metadata>
  <defs
     id="defs20" />
  <sodipodi:namedview
     pagecolor="#ffffff"
     bordercolor="#666666"
     borderopacity="1"
     objecttolerance="10"
     gridtolerance="10"
     guidetolerance="10"
     inkscape:pageopacity="0"
     inkscape:pageshadow="2"
     inkscape:window-width="640"
     inkscape:window-height="480"
     id="namedview18"
     showgrid="false"
     inkscape:zoom="29.365243"
     inkscape:cx="25.325443"
     inkscape:cy="32"
     inkscape:current-layer="svg16"
     units="px" />
  <linearGradient
     id="_lgradient_27"
     x1="0"
     y1="0.5"
     x2="1"
     y2="0.5"
     gradientTransform="matrix(-18.63,0,0,20.735,33.315,13.633)"
     gradientUnits="userSpaceOnUse">
    <stop
       offset="0%"
       stop-opacity="1"
       style="stop-color:rgb(255,229,59)"
       id="stop2" />
    <stop
       offset="98.69565217391305%"
       stop-opacity="1"
       style="stop-color:rgb(255,0,91)"
       id="stop4" />
  </linearGradient>
  <linearGradient
     id="_lgradient_28"
     x1="0"
     y1="0.5"
     x2="1"
     y2="0.5"
     gradientTransform="matrix(41.584,0,0,42.854,3.566,0.461)"
     gradientUnits="userSpaceOnUse">
    <stop
       offset="0%"
       stop-opacity="1"
       style="stop-color:rgb(24,208,173)"
       id="stop9" />
    <stop
       offset="90.44964029999998%"
       stop-opacity="1"
       style="stop-color:rgb(7,195,242)"
       id="stop11" />
  </linearGradient>
  <g
     id="g831"
     transform="matrix(0.84004251,0,0,0.84004251,-2.4617555,-0.38681204)">
    <path
       id="path7"
       d="m 28.971,18.342 v 0 c 0.407,0.292 0.972,0.2 1.262,-0.205 v 0 c 0.291,-0.405 0.197,-0.971 -0.21,-1.262 v 0 l -5.19,-3.051 c -0.43,-0.253 -1.129,-0.255 -1.561,-0.006 l -7.805,4.506 c -0.432,0.249 -0.782,0.856 -0.782,1.355 v 8.159 c 0,0.498 0.349,1.107 0.78,1.359 l 8.658,5.062 c 0.431,0.251 0.78,0.051 0.78,-0.448 v -5.459 0 c 0,-0.498 -0.405,-0.903 -0.903,-0.903 v 0 c -0.498,0 -0.903,0.405 -0.903,0.903 v 0 2.394 c 0,0.249 -0.175,0.349 -0.39,0.224 l -6.216,-3.611 v -7.54 l 7.455,-4.303 z m -2.524,12.927 v 0 c -0.426,0.26 -0.563,0.816 -0.307,1.242 v 0 c 0.257,0.426 0.811,0.564 1.237,0.307 v 0 l 5.149,-2.87 c 0.436,-0.243 0.789,-0.844 0.789,-1.343 v -9.242 c 0,-0.499 -0.35,-0.701 -0.782,-0.452 l -8.092,4.673 c -0.216,0.125 -0.568,0.128 -0.786,0.007 l -4.631,-2.562 v 0 c -0.409,-0.287 -0.974,-0.19 -1.262,0.216 v 0 c -0.288,0.407 -0.19,0.971 0.219,1.26 v 0 l 5.187,2.994 c 0.432,0.249 1.133,0.249 1.564,0 l 6.777,-3.91 v 6.903 z"
       style="fill:url(#_lgradient_27);fill-rule:evenodd"
       inkscape:connector-curvature="0" />
    <path
       id="path14"
       d="m 41.049,30.449 -3.419,-1.93 v 0 c -0.938,-0.59 -2.177,-0.31 -2.765,0.625 v 0 c -0.588,0.936 -0.308,2.17 0.625,2.755 v 0 0 l 3.902,2.21 -9.835,5.396 v 0 c -0.968,0.589 -1.28,1.852 -0.698,2.82 v 0 c 0.583,0.967 1.842,1.28 2.81,0.697 v 0 l 11.69,-6.517 c 0.988,-0.551 1.791,-1.917 1.791,-3.048 V 19.05 c 0,-1.131 -0.908,-1.934 -2.026,-1.791 v 0 c -1.145,0.147 -2.075,1.207 -2.075,2.366 z M 7.667,30.433 V 14.093 L 21.948,5.849 22.05,10.05 v 0 c 0.028,1.104 0.946,1.978 2.05,1.95 v 0 c 1.104,-0.028 1.978,-0.946 1.95,-2.05 v 0 l -0.098,-4.047 9.336,5.251 v 0 c 0.922,0.662 2.206,0.453 2.865,-0.467 v 0 C 38.812,9.768 38.599,8.484 37.676,7.822 v 0 L 25.891,0.895 C 24.915,0.321 23.327,0.315 22.347,0.881 L 22.065,1.044 21.83,1.05 21.833,1.178 4.325,11.286 C 4.226,11.329 4.134,11.385 4.051,11.453 4.041,11.456 4.035,11.46 4.032,11.466 3.747,11.662 3.607,11.905 3.634,12.148 3.589,12.309 3.566,12.491 3.566,12.69 v 20.767 c 0,1.131 0.803,2.497 1.791,3.048 l 11.69,6.517 v 0 c 0.968,0.583 2.227,0.27 2.81,-0.697 v 0 c 0.582,-0.968 0.27,-2.231 -0.698,-2.82 v 0 L 9.338,34.117 13.09,31.68 v 0 c 0.927,-0.602 1.192,-1.843 0.59,-2.77 v 0 c -0.602,-0.927 -1.843,-1.192 -2.77,-0.59 v 0 z"
       style="fill:url(#_lgradient_28);fill-rule:evenodd"
       inkscape:connector-curvature="0" />
  </g>
</svg>

<?xml version="1.0" encoding="UTF-8" standalone="no"?><!-- Generator: Gravit.io --><svg xmlns="http://www.w3.org/2000/svg" xmlns:xlink="http://www.w3.org/1999/xlink" style="isolation:isolate" viewBox="0 0 48 48" width="48pt" height="48pt"><linearGradient id="_lgradient_27" x1="0" y1="0.5" x2="1" y2="0.5" gradientTransform="matrix(-18.63,0,0,20.735,33.315,13.633)" gradientUnits="userSpaceOnUse"><stop offset="0%" stop-opacity="1" style="stop-color:rgb(255,229,59)"/><stop offset="98.69565217391305%" stop-opacity="1" style="stop-color:rgb(255,0,91)"/></linearGradient><path d=" M 28.971 18.342 L 28.971 18.342 C 29.378 18.634 29.943 18.542 30.233 18.137 L 30.233 18.137 C 30.524 17.732 30.43 17.166 30.023 16.875 L 30.023 16.875 L 24.833 13.824 C 24.403 13.571 23.704 13.569 23.272 13.818 L 15.467 18.324 C 15.035 18.573 14.685 19.18 14.685 19.679 L 14.685 27.838 C 14.685 28.336 15.034 28.945 15.465 29.197 L 24.123 34.259 C 24.554 34.51 24.903 34.31 24.903 33.811 L 24.903 28.352 L 24.903 28.352 C 24.903 27.854 24.498 27.449 24 27.449 L 24 27.449 C 23.502 27.449 23.097 27.854 23.097 28.352 L 23.097 28.352 L 23.097 30.746 C 23.097 30.995 22.922 31.095 22.707 30.97 L 16.491 27.359 L 16.491 19.819 L 23.946 15.516 L 28.971 18.342 Z  M 26.447 31.269 L 26.447 31.269 C 26.021 31.529 25.884 32.085 26.14 32.511 L 26.14 32.511 C 26.397 32.937 26.951 33.075 27.377 32.818 L 27.377 32.818 L 32.526 29.948 C 32.962 29.705 33.315 29.104 33.315 28.605 L 33.315 19.363 C 33.315 18.864 32.965 18.662 32.533 18.911 L 24.441 23.584 C 24.225 23.709 23.873 23.712 23.655 23.591 L 19.024 21.029 L 19.024 21.029 C 18.615 20.742 18.05 20.839 17.762 21.245 L 17.762 21.245 C 17.474 21.652 17.572 22.216 17.981 22.505 L 17.981 22.505 L 23.168 25.499 C 23.6 25.748 24.301 25.748 24.732 25.499 L 31.509 21.589 L 31.509 28.492 L 26.447 31.269 Z " fill-rule="evenodd" fill="url(#_lgradient_27)"/><linearGradient id="_lgradient_28" x1="0" y1="0.5" x2="1" y2="0.5" gradientTransform="matrix(41.584,0,0,42.854,3.566,0.461)" gradientUnits="userSpaceOnUse"><stop offset="0%" stop-opacity="1" style="stop-color:rgb(24,208,173)"/><stop offset="90.44964029999998%" stop-opacity="1" style="stop-color:rgb(7,195,242)"/></linearGradient><path d=" M 41.049 30.449 L 37.63 28.519 L 37.63 28.519 C 36.692 27.929 35.453 28.209 34.865 29.144 L 34.865 29.144 C 34.277 30.08 34.557 31.314 35.49 31.899 L 35.49 31.899 L 35.49 31.899 L 39.392 34.109 L 29.557 39.505 L 29.557 39.505 C 28.589 40.094 28.277 41.357 28.859 42.325 L 28.859 42.325 C 29.442 43.292 30.701 43.605 31.669 43.022 L 31.669 43.022 L 43.359 36.505 C 44.347 35.954 45.15 34.588 45.15 33.457 L 45.15 19.05 C 45.15 17.919 44.242 17.116 43.124 17.259 L 43.124 17.259 C 41.979 17.406 41.049 18.466 41.049 19.625 L 41.049 30.449 Z  M 7.667 30.433 L 7.667 14.093 L 21.948 5.849 L 22.05 10.05 L 22.05 10.05 C 22.078 11.154 22.996 12.028 24.1 12 L 24.1 12 C 25.204 11.972 26.078 11.054 26.05 9.95 L 26.05 9.95 L 25.952 5.903 L 35.288 11.154 L 35.288 11.154 C 36.21 11.816 37.494 11.607 38.153 10.687 L 38.153 10.687 C 38.812 9.768 38.599 8.484 37.676 7.822 L 37.676 7.822 L 25.891 0.895 C 24.915 0.321 23.327 0.315 22.347 0.881 L 22.065 1.044 L 21.83 1.05 L 21.833 1.178 L 4.325 11.286 C 4.226 11.329 4.134 11.385 4.051 11.453 C 4.041 11.456 4.035 11.46 4.032 11.466 C 3.747 11.662 3.607 11.905 3.634 12.148 C 3.589 12.309 3.566 12.491 3.566 12.69 L 3.566 33.457 C 3.566 34.588 4.369 35.954 5.357 36.505 L 17.047 43.022 L 17.047 43.022 C 18.015 43.605 19.274 43.292 19.857 42.325 L 19.857 42.325 C 20.439 41.357 20.127 40.094 19.159 39.505 L 19.159 39.505 L 9.338 34.117 L 13.09 31.68 L 13.09 31.68 C 14.017 31.078 14.282 29.837 13.68 28.91 L 13.68 28.91 C 13.078 27.983 11.837 27.718 10.91 28.32 L 10.91 28.32 L 7.667 30.433 L 7.667 30.433 Z " fill-rule="evenodd" fill="url(#_lgradient_28)"/></svg>
